images/Tech_docker.svg

<svg width="160" height="41" viewBox="0 0 160 41" fill="none" xmlns="http://www.w3.org/2000/svg">
<path d="M74.7683 11.9529C73.9202 11.9264 73.2311 12.589 73.2046 13.4106C73.2046 13.4371 73.2046 13.4901 73.2046 13.5166V21.0434C69.5737 18.1281 64.2466 18.7112 61.3313 22.3421C60.1387 23.8527 59.4761 25.7079 59.4761 27.6427C59.3966 32.3072 63.107 36.1501 67.7715 36.2296C72.436 36.3091 76.279 32.5987 76.3585 27.9342C76.3585 27.8282 76.3585 27.7487 76.3585 27.6427V13.5166C76.3585 13.0925 76.1995 12.695 75.9079 12.4035C75.5899 12.1119 75.1924 11.9529 74.7683 11.9529ZM72.7806 29.6834C72.2505 30.9555 71.2434 31.9626 69.9713 32.5192C68.6461 33.0758 67.162 33.0758 65.8368 32.5192C64.5647 31.9891 63.5841 30.9555 63.054 29.7099C62.4974 28.4112 62.4974 26.9271 63.054 25.6019C63.5841 24.3298 64.5912 23.3227 65.8368 22.7926C67.162 22.2361 68.6461 22.2361 69.9713 22.7926C71.2434 23.3492 72.2505 24.3563 72.7806 25.6284C73.3371 26.9006 73.3371 28.3847 72.7806 29.6834Z" fill="#989898"/>
<path d="M92.3927 21.6796C89.1064 18.3933 83.7528 18.3933 80.4664 21.6796C78.8762 23.2698 78.0016 25.4165 78.0016 27.6428C77.9221 32.3073 81.6325 36.1502 86.297 36.2297C90.9616 36.3092 94.8045 32.5988 94.884 27.9343C94.884 27.8283 94.884 27.7488 94.884 27.6428C94.884 26.5297 94.672 25.443 94.2479 24.4094C93.8239 23.3758 93.1878 22.4482 92.3927 21.6796ZM91.3061 29.657C91.0411 30.2931 90.6435 30.8496 90.1665 31.3267C89.6894 31.8037 89.1063 32.2013 88.4968 32.4663C87.1716 33.0229 85.6875 33.0229 84.3623 32.4663C83.0902 31.9363 82.0831 30.9026 81.553 29.657C80.9965 28.3584 80.9965 26.8742 81.553 25.549C82.0831 24.2769 83.0902 23.2963 84.3623 22.7397C85.6875 22.1832 87.1716 22.1832 88.4968 22.7397C89.1329 23.0048 89.6894 23.4023 90.1665 23.8794C90.6435 24.3564 91.0411 24.9395 91.3061 25.549C91.8627 26.9007 91.8627 28.3849 91.3061 29.657Z" fill="#989898"/>
<path d="M127.297 20.7521C127.297 20.5401 127.244 20.3281 127.165 20.1425C127.085 19.957 126.953 19.798 126.82 19.639C126.688 19.5065 126.502 19.374 126.316 19.2944C126.131 19.2149 125.919 19.1619 125.707 19.1619C125.415 19.1619 125.124 19.2414 124.859 19.4005L115.848 25.2576V13.5433C115.848 13.1193 115.689 12.7217 115.397 12.4302C115.106 12.1386 114.708 11.9531 114.284 11.9531C113.41 11.9531 112.72 12.6422 112.694 13.5168C112.694 13.5168 112.694 13.5168 112.694 13.5433V34.4806C112.694 34.9047 112.853 35.3022 113.145 35.5938C113.436 35.9118 113.834 36.0708 114.258 36.0708C114.682 36.0708 115.079 35.9118 115.371 35.5938C115.662 35.3022 115.848 34.9047 115.821 34.4806V29.0475L117.65 27.8549L124.62 35.6733C124.912 35.9383 125.283 36.0973 125.68 36.0708C125.892 36.0708 126.104 36.0443 126.29 35.9383C126.475 35.8588 126.635 35.7528 126.794 35.5938C126.926 35.4347 127.059 35.2757 127.138 35.0902C127.218 34.9047 127.271 34.6926 127.271 34.4806C127.271 34.0831 127.112 33.6855 126.847 33.394L120.38 26.1057L126.688 21.9977C127.112 21.7327 127.324 21.2557 127.297 20.7521Z" fill="#989898"/>
<path d="M101.139 23.8795C101.616 23.4024 102.199 23.0049 102.835 22.7399C103.497 22.4748 104.186 22.3158 104.902 22.3158C105.538 22.3158 106.148 22.4218 106.731 22.6339C107.314 22.8724 107.87 23.1904 108.347 23.6145C108.639 23.853 109.01 23.959 109.381 23.959C109.805 23.9855 110.229 23.8265 110.521 23.5085C110.812 23.2169 110.971 22.7929 110.971 22.3688C110.971 21.9183 110.786 21.4677 110.415 21.1762C108.904 19.8245 106.943 19.0825 104.902 19.1355C100.238 19.1355 96.4476 22.9254 96.4476 27.5899C96.4476 32.2544 100.211 36.0178 104.849 36.0443C106.89 36.0443 108.851 35.3288 110.388 34.0036C110.706 33.7121 110.892 33.288 110.892 32.8375C110.918 31.9894 110.256 31.3003 109.434 31.2738C109.408 31.2738 109.355 31.2738 109.328 31.2738C108.957 31.2738 108.612 31.3798 108.321 31.5919C107.844 32.0159 107.314 32.3339 106.731 32.5725C106.148 32.7845 105.512 32.8905 104.902 32.8905C104.186 32.8905 103.497 32.758 102.835 32.4664C102.199 32.2014 101.642 31.8039 101.139 31.3268C99.0714 29.2596 99.0714 25.9202 101.112 23.853C101.139 23.906 101.139 23.906 101.139 23.8795Z" fill="#989898"/>
<path d="M158.597 20.2485C158.279 19.9569 157.934 19.7449 157.537 19.6124C157.086 19.4534 156.609 19.3474 156.132 19.2944C155.655 19.2414 155.178 19.2148 154.701 19.2148C153.747 19.2148 152.766 19.3739 151.865 19.7184C150.964 20.0364 150.143 20.5135 149.401 21.0966V20.7785C149.374 19.9039 148.632 19.2413 147.757 19.2679C146.936 19.2944 146.273 19.9569 146.247 20.7785V34.5336C146.273 35.4081 147.015 36.0707 147.89 36.0442C148.711 36.0177 149.374 35.3551 149.401 34.5336V27.6693C149.401 26.9537 149.533 26.2646 149.825 25.6021C150.09 24.966 150.461 24.4094 150.964 23.9324C151.441 23.4553 152.024 23.0578 152.634 22.7927C153.296 22.5277 153.986 22.3687 154.701 22.3687C155.417 22.3687 156.106 22.5012 156.768 22.7397C156.98 22.8458 157.192 22.8988 157.431 22.8988C157.643 22.8988 157.855 22.8722 158.041 22.7662C158.226 22.6867 158.385 22.5807 158.544 22.4217C158.677 22.2892 158.809 22.1037 158.889 21.9181C158.968 21.7326 159.021 21.5206 159.021 21.3086C159.048 20.911 158.889 20.54 158.597 20.2485Z" fill="#989898"/>
<path d="M143.967 24.4094C142.616 21.2821 139.541 19.2413 136.149 19.2148C131.484 19.2148 127.721 22.9783 127.695 27.6428C127.695 32.3073 131.484 36.0972 136.149 36.0972C138.163 36.0972 140.124 35.3816 141.662 34.0565C141.688 34.03 141.715 34.0035 141.715 34.0035C141.847 33.8975 141.98 33.765 142.059 33.606C142.563 32.8639 142.377 31.8833 141.662 31.3797C141.052 30.9822 140.257 31.0617 139.727 31.5652C139.674 31.6182 139.515 31.7507 139.515 31.7772L139.488 31.8037C139.038 32.1748 138.534 32.4928 137.978 32.6783C137.395 32.8904 136.785 32.9964 136.149 32.9699C135.566 32.9699 135.009 32.8904 134.453 32.7048C133.923 32.5193 133.419 32.2808 132.969 31.9363C132.518 31.6182 132.121 31.2207 131.803 30.7701C131.458 30.3196 131.219 29.7895 131.06 29.2595H142.987C143.411 29.2595 143.808 29.1004 144.1 28.8089C144.418 28.5174 144.577 28.1198 144.55 27.6958C144.577 26.5562 144.365 25.443 143.967 24.4094ZM131.06 26.1056C131.219 25.549 131.458 25.0455 131.803 24.5949C132.121 24.1444 132.518 23.7468 132.969 23.4288C133.419 23.1108 133.923 22.8457 134.453 22.6602C134.983 22.4747 135.566 22.3952 136.123 22.3952C136.679 22.3952 137.262 22.4747 137.792 22.6602C138.852 23.0048 139.78 23.6938 140.442 24.5949C140.787 25.0455 141.026 25.5756 141.211 26.1056H131.06Z" fill="#989898"/>
<path d="M153.217 33.791C152.607 33.791 152.13 34.2946 152.13 34.9041C152.13 35.5137 152.634 35.9908 153.243 35.9908C153.853 35.9908 154.33 35.4872 154.33 34.9041C154.33 34.2681 153.827 33.791 153.217 33.791ZM153.217 35.7522C152.74 35.7787 152.342 35.4077 152.316 34.9306C152.289 34.4536 152.66 34.056 153.137 34.0295C153.615 34.003 154.012 34.3741 154.039 34.8511C154.039 34.8776 154.039 34.8776 154.039 34.9041C154.065 35.3547 153.694 35.7522 153.243 35.7522C153.243 35.7522 153.243 35.7522 153.217 35.7522Z" fill="#989898"/>
<path d="M153.482 34.9044C153.615 34.8779 153.694 34.7718 153.694 34.6393C153.694 34.5333 153.668 34.4538 153.588 34.4008C153.482 34.3478 153.35 34.3213 153.217 34.3213C153.084 34.3213 152.925 34.3213 152.793 34.3478V35.4344H153.031V35.0104H153.138C153.27 35.0104 153.35 35.0634 153.376 35.1694C153.403 35.2489 153.429 35.3549 153.456 35.4344H153.721C153.668 35.3549 153.641 35.2489 153.641 35.1694C153.668 35.0634 153.588 34.9574 153.482 34.9044ZM153.164 34.8248H153.031V34.5068C153.084 34.5068 153.137 34.5068 153.164 34.5068C153.323 34.5068 153.403 34.5863 153.403 34.6658C153.429 34.7718 153.297 34.8513 153.164 34.8248Z" fill="#989898"/>
<path d="M56.5872 15.5038C56.4282 15.3713 54.9971 14.2847 51.9227 14.2847C51.1276 14.2847 50.306 14.3642 49.511 14.4967C48.9279 10.4417 45.562 8.48052 45.4295 8.37451L44.6079 7.89746L44.0779 8.66604C43.4153 9.69966 42.9117 10.8658 42.6202 12.0584C42.0636 14.3642 42.4082 16.5374 43.5743 18.3926C42.1696 19.1877 39.8904 19.3732 39.4133 19.3997H1.77916C0.798548 19.3997 0.00345909 20.1948 0.00345909 21.1754C-0.0495468 24.4618 0.507015 27.7482 1.64664 30.849C2.94529 34.2414 4.88 36.7592 7.37128 38.2963C10.1806 40.019 14.7656 40.9996 19.9337 40.9996C22.2659 40.9996 24.5982 40.7876 26.9039 40.3636C30.1108 39.7805 33.1852 38.6674 36.021 37.0507C38.3532 35.6991 40.447 33.9764 42.2227 31.9621C45.2175 28.5963 46.9932 24.8328 48.2918 21.4935C48.4773 21.4935 48.6364 21.4935 48.8219 21.4935C52.0817 21.4935 54.096 20.1948 55.2091 19.0817C55.9512 18.3926 56.5077 17.5445 56.9053 16.5904L57.1438 15.9013L56.5872 15.5038Z" fill="#989898"/>
<path d="M5.27758 18.3138H10.3131C10.5517 18.3138 10.7637 18.1283 10.7637 17.8633V13.3578C10.7637 13.1192 10.5782 12.9072 10.3131 12.9072H5.27758C5.03905 12.9072 4.82703 13.0927 4.82703 13.3578V17.8633C4.85353 18.1283 5.03905 18.3138 5.27758 18.3138Z" fill="#989898"/>
<path d="M12.2213 18.3138H17.2569C17.4954 18.3138 17.7074 18.1283 17.7074 17.8633V13.3578C17.7074 13.1192 17.5219 12.9072 17.2569 12.9072H12.2213C11.9828 12.9072 11.7708 13.0927 11.7708 13.3578V17.8633C11.7973 18.1283 11.9828 18.3138 12.2213 18.3138Z" fill="#989898"/>
<path d="M19.2976 18.3138H24.3332C24.5717 18.3138 24.7837 18.1283 24.7837 17.8633V13.3578C24.7837 13.1192 24.5982 12.9072 24.3332 12.9072H19.2976C19.0591 12.9072 18.847 13.0927 18.847 13.3578V17.8633C18.847 18.1283 19.0326 18.3138 19.2976 18.3138Z" fill="#989898"/>
<path d="M26.2679 18.3138H31.3035C31.542 18.3138 31.754 18.1283 31.754 17.8633V13.3578C31.754 13.1192 31.5685 12.9072 31.3035 12.9072H26.2679C26.0294 12.9072 25.8174 13.0927 25.8174 13.3578V17.8633C25.8174 18.1283 26.0294 18.3138 26.2679 18.3138Z" fill="#989898"/>
<path d="M12.2213 11.8734H17.2569C17.4954 11.8734 17.7074 11.6614 17.7074 11.4229V6.91735C17.7074 6.67882 17.5219 6.4668 17.2569 6.4668H12.2213C11.9828 6.4668 11.7708 6.65232 11.7708 6.91735V11.4229C11.7973 11.6614 11.9828 11.8734 12.2213 11.8734Z" fill="#989898"/>
<path d="M19.2976 11.8734H24.3332C24.5717 11.8734 24.7837 11.6614 24.7837 11.4229V6.91735C24.7837 6.67882 24.5982 6.4668 24.3332 6.4668H19.2976C19.0591 6.4668 18.847 6.65232 18.847 6.91735V11.4229C18.847 11.6614 19.0326 11.8734 19.2976 11.8734Z" fill="#989898"/>
<path d="M26.2679 11.8734H31.3035C31.542 11.8734 31.754 11.6614 31.754 11.4229V6.91735C31.754 6.67882 31.542 6.4668 31.3035 6.4668H26.2679C26.0294 6.4668 25.8174 6.65232 25.8174 6.91735V11.4229C25.8174 11.6614 26.0294 11.8734 26.2679 11.8734Z" fill="#989898"/>
<path d="M26.2679 5.4066H31.3035C31.542 5.4066 31.754 5.22108 31.754 4.95605V0.450553C31.754 0.212027 31.542 0 31.3035 0H26.2679C26.0294 0 25.8174 0.185524 25.8174 0.450553V4.95605C25.8174 5.19458 26.0294 5.4066 26.2679 5.4066Z" fill="#989898"/>
<path d="M33.2911 18.3138H38.3267C38.5652 18.3138 38.7772 18.1283 38.7772 17.8633V13.3578C38.7772 13.1192 38.5917 12.9072 38.3267 12.9072H33.2911C33.0526 12.9072 32.8406 13.0927 32.8406 13.3578V17.8633C32.8671 18.1283 33.0526 18.3138 33.2911 18.3138Z" fill="#989898"/>
</svg>

<?xml version="1.0" encoding="UTF-8" standalone="no"?><!DOCTYPE svg PUBLIC "-//W3C//DTD SVG 1.1//EN" "http://www.w3.org/Graphics/SVG/1.1/DTD/svg11.dtd"><svg width="100%" height="100%" viewBox="0 0 160 41" version="1.1" xmlns="http://www.w3.org/2000/svg" xmlns:xlink="http://www.w3.org/1999/xlink" xml:space="preserve" xmlns:serif="http://www.serif.com/" style="fill-rule:evenodd;clip-rule:evenodd;stroke-linejoin:round;stroke-miterlimit:2;"><path d="M74.768,11.953c-0.848,-0.027 -1.537,0.636 -1.563,1.458l0,7.632c-3.631,-2.915 -8.958,-2.332 -11.874,1.299c-1.192,1.511 -1.855,3.366 -1.855,5.301c-0.079,4.664 3.631,8.507 8.295,8.587c4.665,0.079 8.508,-3.631 8.587,-8.296l0,-14.417c0,-0.425 -0.159,-0.822 -0.45,-1.114c-0.318,-0.291 -0.716,-0.45 -1.14,-0.45Zm-1.987,17.73c-0.531,1.272 -1.538,2.28 -2.81,2.836c-1.325,0.557 -2.809,0.557 -4.134,-0c-1.272,-0.53 -2.253,-1.564 -2.783,-2.809c-0.557,-1.299 -0.557,-2.783 0,-4.108c0.53,-1.272 1.537,-2.279 2.783,-2.809c1.325,-0.557 2.809,-0.557 4.134,-0c1.272,0.556 2.279,1.563 2.81,2.835c0.556,1.273 0.556,2.757 0,4.055Z" style="fill:#9ea5a7;fill-rule:nonzero;"/><path d="M92.393,21.68c-3.287,-3.287 -8.64,-3.287 -11.927,0c-1.59,1.59 -2.464,3.736 -2.464,5.963c-0.08,4.664 3.63,8.507 8.295,8.587c4.665,0.079 8.507,-3.631 8.587,-8.296l0,-0.291c0,-1.113 -0.212,-2.2 -0.636,-3.234c-0.424,-1.033 -1.06,-1.961 -1.855,-2.729Zm-1.087,7.977c-0.265,0.636 -0.663,1.193 -1.14,1.67c-0.477,0.477 -1.06,0.874 -1.669,1.139c-1.325,0.557 -2.81,0.557 -4.135,-0c-1.272,-0.53 -2.279,-1.563 -2.809,-2.809c-0.557,-1.299 -0.557,-2.783 0,-4.108c0.53,-1.272 1.537,-2.253 2.809,-2.809c1.325,-0.557 2.81,-0.557 4.135,-0c0.636,0.265 1.192,0.662 1.669,1.139c0.477,0.477 0.875,1.06 1.14,1.67c0.557,1.352 0.557,2.836 0,4.108Z" style="fill:#9ea5a7;fill-rule:nonzero;"/><path d="M127.297,20.752c0,-0.212 -0.053,-0.424 -0.132,-0.61c-0.08,-0.185 -0.212,-0.344 -0.345,-0.503c-0.132,-0.133 -0.318,-0.265 -0.504,-0.345c-0.185,-0.079 -0.397,-0.132 -0.609,-0.132c-0.292,0 -0.583,0.079 -0.848,0.239l-9.011,5.857l0,-11.715c0,-0.424 -0.159,-0.821 -0.451,-1.113c-0.291,-0.291 -0.689,-0.477 -1.113,-0.477c-0.874,0 -1.564,0.689 -1.59,1.564l0,20.964c0,0.424 0.159,0.821 0.451,1.113c0.291,0.318 0.689,0.477 1.113,0.477c0.424,-0 0.821,-0.159 1.113,-0.477c0.291,-0.292 0.477,-0.689 0.45,-1.113l0,-5.434l1.829,-1.192l6.97,7.818c0.292,0.265 0.663,0.424 1.06,0.398c0.212,-0 0.424,-0.027 0.61,-0.133c0.185,-0.079 0.345,-0.185 0.504,-0.344c0.132,-0.159 0.265,-0.318 0.344,-0.504c0.08,-0.185 0.133,-0.397 0.133,-0.609c0,-0.398 -0.159,-0.796 -0.424,-1.087l-6.467,-7.288l6.308,-4.108c0.424,-0.265 0.636,-0.742 0.609,-1.246Z" style="fill:#9ea5a7;fill-rule:nonzero;"/><path d="M101.139,23.88c0.477,-0.478 1.06,-0.875 1.696,-1.14c0.662,-0.265 1.351,-0.424 2.067,-0.424c0.636,0 1.246,0.106 1.829,0.318c0.583,0.238 1.139,0.556 1.616,0.98c0.292,0.239 0.663,0.345 1.034,0.345c0.424,0.026 0.848,-0.133 1.14,-0.45c0.291,-0.292 0.45,-0.716 0.45,-1.14c0,-0.451 -0.185,-0.901 -0.556,-1.193c-1.511,-1.351 -3.472,-2.093 -5.513,-2.04c-4.664,0 -8.454,3.789 -8.454,8.454c0,4.664 3.763,8.428 8.401,8.454c2.041,0 4.002,-0.715 5.539,-2.04c0.318,-0.292 0.504,-0.716 0.504,-1.166c0.026,-0.849 -0.636,-1.538 -1.458,-1.564l-0.106,0c-0.371,0 -0.716,0.106 -1.007,0.318c-0.477,0.424 -1.007,0.742 -1.59,0.98c-0.583,0.212 -1.219,0.319 -1.829,0.319c-0.716,-0.001 -1.405,-0.133 -2.067,-0.425c-0.636,-0.265 -1.193,-0.662 -1.696,-1.139c-2.068,-2.067 -2.068,-5.407 -0.027,-7.474c0.027,0.053 0.027,0.053 0.027,0.026l0,0.001Z" style="fill:#9ea5a7;fill-rule:nonzero;"/><path d="M158.597,20.249c-0.318,-0.292 -0.663,-0.504 -1.06,-0.637c-0.451,-0.159 -0.928,-0.265 -1.405,-0.318c-0.477,-0.053 -0.954,-0.079 -1.431,-0.079c-0.954,0 -1.935,0.159 -2.836,0.503c-0.901,0.318 -1.722,0.796 -2.464,1.379l0,-0.318c-0.027,-0.875 -0.769,-1.538 -1.644,-1.511c-0.821,0.026 -1.484,0.689 -1.51,1.511l0,13.755c0.026,0.874 0.768,1.537 1.643,1.51c0.821,-0.026 1.484,-0.689 1.511,-1.51l0,-6.865c0,-0.715 0.132,-1.404 0.424,-2.067c0.265,-0.636 0.636,-1.193 1.139,-1.67c0.477,-0.477 1.06,-0.874 1.67,-1.139c0.662,-0.265 1.352,-0.424 2.067,-0.424c0.716,0 1.405,0.132 2.067,0.371c0.212,0.106 0.424,0.159 0.663,0.159c0.212,0 0.424,-0.027 0.61,-0.133c0.185,-0.079 0.344,-0.185 0.503,-0.344c0.133,-0.133 0.265,-0.318 0.345,-0.504c0.079,-0.185 0.132,-0.397 0.132,-0.609c0.027,-0.398 -0.132,-0.769 -0.424,-1.06Z" style="fill:#9ea5a7;fill-rule:nonzero;"/><path d="M143.967,24.409c-1.351,-3.127 -4.426,-5.168 -7.818,-5.194c-4.665,0 -8.428,3.763 -8.454,8.428c0,4.664 3.789,8.454 8.454,8.454c2.014,0 3.975,-0.715 5.513,-2.041c0.026,-0.026 0.053,-0.053 0.053,-0.053c0.132,-0.106 0.265,-0.238 0.344,-0.397c0.504,-0.742 0.318,-1.723 -0.397,-2.226c-0.61,-0.398 -1.405,-0.318 -1.935,0.185c-0.053,0.053 -0.212,0.186 -0.212,0.212l-0.027,0.027c-0.45,0.371 -0.954,0.689 -1.51,0.874c-0.583,0.212 -1.193,0.318 -1.829,0.292c-0.583,0 -1.14,-0.08 -1.696,-0.265c-0.53,-0.186 -1.034,-0.424 -1.484,-0.769c-0.451,-0.318 -0.848,-0.715 -1.166,-1.166c-0.345,-0.45 -0.584,-0.981 -0.743,-1.511l11.927,0c0.424,0 0.821,-0.159 1.113,-0.45c0.318,-0.292 0.477,-0.689 0.45,-1.113c0.027,-1.14 -0.185,-2.253 -0.583,-3.287Zm-12.907,1.697c0.159,-0.557 0.398,-1.061 0.743,-1.511c0.318,-0.451 0.715,-0.848 1.166,-1.166c0.45,-0.318 0.954,-0.583 1.484,-0.769c0.53,-0.185 1.113,-0.265 1.67,-0.265c0.556,-0 1.139,0.08 1.669,0.265c1.06,0.345 1.988,1.034 2.65,1.935c0.345,0.45 0.584,0.981 0.769,1.511l-10.151,-0Z" style="fill:#9ea5a7;fill-rule:nonzero;"/><path d="M153.217,33.791c-0.61,-0 -1.087,0.504 -1.087,1.113c0,0.61 0.504,1.087 1.113,1.087c0.61,-0 1.087,-0.504 1.087,-1.087c0,-0.636 -0.503,-1.113 -1.113,-1.113Zm0,1.961c-0.477,0.027 -0.875,-0.344 -0.901,-0.821c-0.027,-0.477 0.344,-0.875 0.821,-0.902c0.478,-0.026 0.875,0.345 0.902,0.822l0,0.053c0.026,0.451 -0.345,0.848 -0.796,0.848l-0.026,-0Z" style="fill:#9ea5a7;fill-rule:nonzero;"/><path d="M153.482,34.904c0.133,-0.026 0.212,-0.132 0.212,-0.265c0,-0.106 -0.026,-0.185 -0.106,-0.238c-0.106,-0.053 -0.238,-0.08 -0.371,-0.08c-0.133,0 -0.292,0 -0.424,0.027l0,1.086l0.238,0l0,-0.424l0.107,0c0.132,0 0.212,0.053 0.238,0.159c0.027,0.08 0.053,0.186 0.08,0.265l0.265,0c-0.053,-0.079 -0.08,-0.185 -0.08,-0.265c0.027,-0.106 -0.053,-0.212 -0.159,-0.265Zm-0.318,-0.079l-0.133,0l0,-0.318l0.133,0c0.159,0 0.239,0.079 0.239,0.159c0.026,0.106 -0.106,0.185 -0.239,0.159Z" style="fill:#9ea5a7;fill-rule:nonzero;"/><path d="M56.587,15.504c-0.159,-0.133 -1.59,-1.219 -4.664,-1.219c-0.795,0 -1.617,0.079 -2.412,0.212c-0.583,-4.055 -3.949,-6.016 -4.082,-6.122l-0.821,-0.478l-0.53,0.769c-0.663,1.034 -1.166,2.2 -1.458,3.392c-0.556,2.306 -0.212,4.479 0.954,6.335c-1.404,0.795 -3.684,0.98 -4.161,1.007l-37.634,0c-0.98,0 -1.776,0.795 -1.776,1.775c-0.053,3.287 0.504,6.573 1.644,9.674c1.298,3.392 3.233,5.91 5.724,7.447c2.81,1.723 7.395,2.704 12.563,2.704c2.332,0 4.664,-0.212 6.97,-0.636c3.207,-0.583 6.281,-1.697 9.117,-3.313c2.332,-1.352 4.426,-3.075 6.202,-5.089c2.994,-3.366 4.77,-7.129 6.069,-10.468l0.53,0c3.26,0 5.274,-1.299 6.387,-2.412c0.742,-0.689 1.299,-1.537 1.696,-2.492l0.239,-0.689l-0.557,-0.397Z" style="fill:#9ea5a7;fill-rule:nonzero;"/><path d="M5.278,18.314l5.035,0c0.239,0 0.451,-0.186 0.451,-0.451l0,-4.505c0,-0.239 -0.186,-0.451 -0.451,-0.451l-5.035,0c-0.239,0 -0.451,0.186 -0.451,0.451l0,4.505c0.027,0.265 0.212,0.451 0.451,0.451Z" style="fill:#9ea5a7;fill-rule:nonzero;"/><path d="M12.221,18.314l5.036,0c0.238,0 0.45,-0.186 0.45,-0.451l0,-4.505c0,-0.239 -0.185,-0.451 -0.45,-0.451l-5.036,0c-0.238,0 -0.45,0.186 -0.45,0.451l0,4.505c0.026,0.265 0.212,0.451 0.45,0.451Z" style="fill:#9ea5a7;fill-rule:nonzero;"/><path d="M19.298,18.314l5.035,0c0.239,0 0.451,-0.186 0.451,-0.451l0,-4.505c0,-0.239 -0.186,-0.451 -0.451,-0.451l-5.035,0c-0.239,0 -0.451,0.186 -0.451,0.451l0,4.505c0,0.265 0.186,0.451 0.451,0.451Z" style="fill:#9ea5a7;fill-rule:nonzero;"/><path d="M26.268,18.314l5.035,0c0.239,0 0.451,-0.186 0.451,-0.451l0,-4.505c0,-0.239 -0.186,-0.451 -0.451,-0.451l-5.035,0c-0.239,0 -0.451,0.186 -0.451,0.451l0,4.505c0,0.265 0.212,0.451 0.451,0.451Z" style="fill:#9ea5a7;fill-rule:nonzero;"/><path d="M12.221,11.873l5.036,-0c0.238,-0 0.45,-0.212 0.45,-0.45l0,-4.506c0,-0.238 -0.185,-0.45 -0.45,-0.45l-5.036,-0c-0.238,-0 -0.45,0.185 -0.45,0.45l0,4.506c0.026,0.238 0.212,0.45 0.45,0.45Z" style="fill:#9ea5a7;fill-rule:nonzero;"/><path d="M19.298,11.873l5.035,-0c0.239,-0 0.451,-0.212 0.451,-0.45l0,-4.506c0,-0.238 -0.186,-0.45 -0.451,-0.45l-5.035,-0c-0.239,-0 -0.451,0.185 -0.451,0.45l0,4.506c0,0.238 0.186,0.45 0.451,0.45Z" style="fill:#9ea5a7;fill-rule:nonzero;"/><path d="M26.268,11.873l5.035,-0c0.239,-0 0.451,-0.212 0.451,-0.45l0,-4.506c0,-0.238 -0.212,-0.45 -0.451,-0.45l-5.035,-0c-0.239,-0 -0.451,0.185 -0.451,0.45l0,4.506c0,0.238 0.212,0.45 0.451,0.45Z" style="fill:#9ea5a7;fill-rule:nonzero;"/><path d="M26.268,5.407l5.035,-0c0.239,-0 0.451,-0.186 0.451,-0.451l0,-4.505c0,-0.239 -0.212,-0.451 -0.451,-0.451l-5.035,-0c-0.239,-0 -0.451,0.186 -0.451,0.451l0,4.505c0,0.239 0.212,0.451 0.451,0.451Z" style="fill:#9ea5a7;fill-rule:nonzero;"/><path d="M33.291,18.314l5.036,0c0.238,0 0.45,-0.186 0.45,-0.451l0,-4.505c0,-0.239 -0.185,-0.451 -0.45,-0.451l-5.036,0c-0.238,0 -0.45,0.186 -0.45,0.451l0,4.505c0.026,0.265 0.212,0.451 0.45,0.451Z" style="fill:#9ea5a7;fill-rule:nonzero;"/></svg>
